X: 16
T:Poolside Polka
M:2/4
L:1/16
C:Cliff Stapleton
R:Polka
Z:Steve Mansfield
K:G
B2d2 g2ba | g2fe d4 | egfe d2B2 | cBcd A4 | B2d2 g2ba | g2fe d4 |
egfe dfab |1 a2g2 g4 :|2 a2g2 g2B2 |: c3c e2dc | B6 d2 | defg agfe |
d6 B2 | c3c e2dc | B6 d2 | defg agfa |1 g2b2 g2B2 :|2 g2b2g2 Bc |
|: d2d2 dBdg | d2d2 dBdg | edce dcBd | cBAB cABc |
d2d2 dBdg | d2d2 dBdg | edce dcBd | cBAB G4 :|
<end>
<start>
